**kern	**kern
*part1	*part1
*staff2	*staff1
*I"Piano	*
*clefF4	*clefG2
*k[b-e-a-]	*k[b-e-a-]
=1	=1
2.E-	4r
.	4c 4e- 4g
.	4c 4e- 4g
=	=
4BBB- 4BB-	4r
4r	4B- 4e- 4g
4r	4B- 4e- 4g
=	=
4FF 4F	4r
4r	4An 4e- 4f
4r	4A 4e- 4f
=	=
4BBB- 4BB-	4r
4r	4B- 4d 4a-
4r	4B-; 4d 4a-
=	=
4EE- 4E-	4B- 4e- 4g
4EE- 4E-	4e- 4g 4b- 4ee-
4r	4r
=||	=||
*k[b-e-]	*k[b-e-]
4BB-	4ff'
4F 4B- 4d	(8fffL
.	8ddd
4F 4B- 4d	8bb-
.	8ffJ)
=	=
4D	4fff'
4F 4B- 4d	4ff'
4F 4B- 4d	4fff'
=	=
*-	*-
!!!system-decoration: {(s1,s2)}
